common/src/main/resources/icons/expui/python/toolwindow/pythonConsole@20x20.svg

<svg xmlns="http://www.w3.org/2000/svg" width="20" height="20" fill="#FFCB6B" viewBox="0 0 24 24"><path d="M2 5.69c6.92-4.62 9.1 1.31 9.28 4.58.18 3.26-2.99 7.37-6.97 4.65v5.38L2 18.77zM4.22 7.4v5.38c3.62 2.17 4.86.39 4.86-2.69 0-4.35-2.51-4.5-4.86-2.69m10.86-3.25s-.18 3.49 0 6.92c.36 3.43 4.61.77 4.61.77V4.92L22 5.2v9.24c0 6.16-6.15 5.86-6.15 5.86l-.77-2.3c5.38 0 4.7-3.57 4.7-3.57-6.51 2.54-7.01-1.82-7.01-1.82V5.69z"/></svg>

<!--
  - The MIT License (MIT)
  -
  - Copyright (c) 2015-2023 Elior "Mallowigi" Boukhobza
  -
  - Permission is hereby granted, free of charge, to any person obtaining a copy
  - of this software and associated documentation files (the "Software"), to deal
  - in the Software without restriction, including without limitation the rights
  - to use, copy, modify, merge, publish, distribute, sublicense, and/or sell
  - copies of the Software, and to permit persons to whom the Software is
  - furnished to do so, subject to the following conditions:
  -
  - The above copyright notice and this permission notice shall be included in all
  - copies or substantial portions of the Software.
  -
  - THE SOFTWARE IS PROVIDED "AS IS", WITHOUT WARRANTY OF ANY KIND, EXPRESS OR
  - IMPLIED, INCLUDING BUT NOT LIMITED TO THE WARRANTIES OF MERCHANTABILITY,
  - FITNESS FOR A PARTICULAR PURPOSE AND NONINFRINGEMENT. IN NO EVENT SHALL THE
  - AUTHORS OR COPYRIGHT HOLDERS BE LIABLE FOR ANY CLAIM, DAMAGES OR OTHER
  - LIABILITY, WHETHER IN AN ACTION OF CONTRACT, TORT OR OTHERWISE, ARISING FROM,
  - OUT OF OR IN CONNECTION WITH THE SOFTWARE OR THE USE OR OTHER DEALINGS IN THE
  - SOFTWARE.
  -
  -->


<svg xmlns="http://www.w3.org/2000/svg" version="1.1" width="20px" height="20px" fill="#FFCB6B"
     viewBox="0 0 24 24">
  <path
    d="M2,5.69C8.92,1.07 11.1,7 11.28,10.27C11.46,13.53 8.29,17.64 4.31,14.92V20.3L2,18.77V5.69M4.22,7.4V12.78C7.84,14.95 9.08,13.17 9.08,10.09C9.08,5.74 6.57,5.59 4.22,7.4M15.08,4.15C15.08,4.15 14.9,7.64 15.08,11.07C15.44,14.5 19.69,11.84 19.69,11.84V4.92L22,5.2V14.44C22,20.6 15.85,20.3 15.85,20.3L15.08,18C20.46,18 19.78,14.43 19.78,14.43C13.27,16.97 12.77,12.61 12.77,12.61V5.69L15.08,4.15Z"/>
</svg>
